X:1
T:Polska
R:Polska
M:3/4
L:1/16
B:http://www.smus.se/earkiv/fmk/browselarge.php?lang=sw&katalogid=Hs+11&bildnr=00036
Z:Nils L
K:Am
a4 (e2f2) d2c2 | c4 (A2B2) c2d2 | e2a2 e2f2 d2e2 |1 c4 A8 :|2 c4 A4 z3 |: 
c | (c2B2) G4 (B2d2) | (d2c2 A4) (A2c2) | (c2B2 G4) (B2d2) |1 c4 A4 z3 :|2 c4 A8 |]

